
(
[
Pdef(\hat),
Pdef(\kick),
//Pdef(\kick_v2),
Pdef(\snare),
Pdef(\hsnare),
Pdef(\carla),
Pdef(\bob),
Pdef(\tuf),
Pdef(\tar),
].collect(_.play)
)

Pdef(\hat),
Pdef(\kick),
Pdef(\kick_v2),
Pdef(\snare),
Pdef(\hsnare),
Pdef(\carla),
Pdef(\bob),
Pdef(\tuf),
Pdef(\tar),
